X: 11400
T: East Clare, The
R: reel
M: 4/4
K: Dmixolydian
|:D2FA d2cA|GEED EFGB|Add^c d=cAB|cAGE EDCE|
D2FA d2cA|GEED EFGB|Add^c d=cAB|cAGE EDD2:|
|:aged cded|~c3d eg~g2|aged cded|cAGE EDD2|
ed e/f/g aged|dcAB cAGE|=F3E FGAB|1 cAGE EDD2:|2 cAGE EDCE||

